task1.1/build/res/icons/a-list-icon.svg

<svg width="32" height="32" viewBox="0 0 32 32" fill="none" xmlns="http://www.w3.org/2000/svg">
<path d="M24.3125 2.5H19.5984C19.0823 1.04492 17.6921 0 16.0625 0C14.4329 0 13.0427 1.04492 12.5266 2.5H7.75C5.68213 2.5 4 4.18213 4 6.25V28.25C4 30.3179 5.68213 32 7.75 32H24.3164C26.3821 31.9978 28.0625 30.3157 28.0625 28.25V6.25C28.0625 4.18213 26.3804 2.5 24.3125 2.5ZM14.8125 5V3.75C14.8125 3.06079 15.3733 2.5 16.0625 2.5C16.7517 2.5 17.3125 3.06079 17.3125 3.75V5H19.8125V7.4375H12.3125V5H14.8125ZM25.5625 28.25C25.5625 28.9385 25.0022 29.4993 24.3152 29.5H7.75C7.06079 29.5 6.5 28.9392 6.5 28.25V6.25C6.5 5.56079 7.06079 5 7.75 5H9.8125V9.9375H22.3125V5H24.3125C25.0017 5 25.5625 5.56079 25.5625 6.25V28.25ZM20.8254 14.3774L22.6743 16.0601L14.6687 24.8569L9.38086 19.7422L11.1191 17.9453L14.5544 21.2681L20.8254 14.3774Z" fill="black"/>
</svg>

<svg width="32" height="32" fill="none" xmlns="http://www.w3.org/2000/svg"><path d="M24.313 2.5h-4.715A3.757 3.757 0 0016.063 0a3.757 3.757 0 00-3.536 2.5H7.75A3.754 3.754 0 004 6.25v22A3.754 3.754 0 007.75 32h16.566a3.755 3.755 0 003.747-3.75v-22a3.754 3.754 0 00-3.75-3.75zm-9.5 2.5V3.75a1.25 1.25 0 012.5 0V5h2.5v2.438h-7.5V5h2.5zm10.75 23.25c0 .689-.56 1.25-1.248 1.25H7.75c-.69 0-1.25-.56-1.25-1.25v-22C6.5 5.56 7.06 5 7.75 5h2.063v4.938h12.5V5h2c.689 0 1.25.56 1.25 1.25v22zm-4.738-13.873l1.85 1.683-8.006 8.797-5.288-5.115 1.738-1.797 3.435 3.323 6.271-6.89z" fill="#000"/></svg>
